X:1
T:Mine Eyes Have Seen the Dawning
T:Frank E. Newton, 1905
T:Mine Eyes Have Seen the Dawning
T:Public Domain
T:Public Domain
T:Public Domain
C:Frank E. Newton, 1905
Z:Public Domain
%%score ( 1 2 ) ( 3 4 )
L:1/8
M:4/4
K:Eb
V:1 treble 
V:2 treble 
V:3 bass 
V:4 bass 
V:1
 (E[EF]) | [EG]3 [EG] E2 [DF]2 | [EG]2 E2 [CF]2 [=EG]2 | [FA]2 [FA]2 [DF]3 [DA] | %4
w: 1.~Mine *|have seen the dawn-|Of a com- ing|ious morn, Mine ears|
w: 2.~I~can *|the stead- y tramp-|Of ten thou- sand|ing feet, True men|
w: 3.~Let~the *|of help- less child-|Crushed by crimes the|al- lows, Let the|
w: 4.~The *|of all earth’s lit-|ones Have reached the|white throne, And the|
w: 5.~Though~the *|of sin be hea-|And they bind our|tive land, Though the|
w: 6.~No *|ti- tude is might-|That has made a|with sin, Nor wealth|
 [EG]4 (G2 [G=A]2) | [GB]3 [GB] G2 [^F=A]2 | [GB]2 G2 [GB]2 [=Ac]2 | [Bd]2 G2 [GB]3 [^F=A] | %8
w: have heard *|an- gels’ song, They|when Christ was born;|have caught the word|
w: and wo- *|mov- ing on Through|way, lane and street;|will ne- ver pause|
w: blight- ed *|of wo- men, Lost|man- hood’s brok- en|Let the sighs of|
w: King Him- *|has heark- ened, He|made their griefs His|He is come to|
w: curse be *|the na- tions, Yet|God has raised His|He is call- ing|
w: nor wis- *|can de- fend, When|vil rules with- in,|the meek shall o-|
 G4 [DG]2 [DF]2 | E3 [DF] [EG]2 [DA]2 | [EB]2 [EG]2 [EA]2 [EB]2 | [Ec]3 [F=A] [FB]2 [Fc]2 | %12
w: prom- ise Un-|wear- y hearts and|That God is march-|ing on. * *|
w: fal- ter Till|tri- umph is com-|With God they’re march-|ing on. * *|
w: less sor- row|ery free man’s heart|rouse, Since God is|march- ing on. *|
w: the help- less,|will make His judg-|known, His strength is|march- ing on. *|
w: to fol- low,|ad- vance at His|mand; With Him we’re|march- ing on. *|
w: come them, And|right the day must|Since God is march-|ing on. * *|
 [Ge]4 (c2 B2) x2 | [GB]4 (G2 A2) x2 | !>![GB]4 !>![AB]4 | !>![GB]6 x2 |] %16
w: ||||
w: ||||
w: ||||
w: ||||
w: ||||
w: ||||
V:2
 E2 | x4 E2 x2 | x2 =E2 x4 | x8 | x4 G2 x2 | x4 G2 x2 | x2 G2 x4 | x2 G2 x4 | G4 x4 | E3 x5 | x8 | %11
w: eyes|ing|glor-||the|sang|I|of|to|worn,||
w: hear|ing|march-||men|high-|They|nor|the|plete,||
w: sobs|ren|law||lives|through|vows,|hope-|Ev-|a-||
w: cries|tle|great||self|has|own;|help|He|ments||
w: chains|vy,|na-||on|our|hand;|us|We|com-||
w: mul-|y|league||dom|e-|For|ver-|the|win,||
 x8 | x4 A4 x2 | x4 E4 x2 | x8 | x8 |] %16
w: |||||
w: |||||
w: |||||
w: |||||
w: |||||
w: |||||
V:3
 (G,[E,A,]) | [E,B,]3 [E,B,] [G,B,]2 [F,B,]2 | [E,B,]2 [G,B,]2 [A,C]2 [G,C]2 | %3
 [F,C]2 [F,C]2 [B,,B,]3 [B,,B,] | [E,B,]4 ([E,B,]2 [E,C]2) | [D,D]3 [D,D] [B,D]2 [=A,D]2 | %6
 [G,D]2 [G,B,]2 [E,E]2 [C,E]2 | [B,,F]2 [C,E]2 [D,D]3 [D,D] | [G,B,]4 [A,B,]2 [A,B,]2 | %9
 [G,B,]3 [F,B,] [E,B,]2 x2 | [F,B,]2 [G,B,]2 [E,B,]2 [F,B,]2 | [G,B,]2 [F,=A,]3 [F,E] [G,D]2 | %12
 [=A,C]2 B,4 E2 x2 | D2 [CE]4 C2 x2 | _C2 !>![B,E]4 !>![B,D]2- | [B,D]2 !>![E,E]6 |] %16
V:4
 E,2 | x8 | x8 | x8 | x8 | x8 | x8 | x8 | x8 | x8 | x8 | x8 | x2 B,4 B,4 | x6 E4 | x8 | x8 |] %16

